!!!OTL: AUF EINEM BAUM EIN KUCKUK
!!!ARE: Europa, Mitteleuropa, Deutschland, Bergisches Land, Barmen
!!!SCT: E1739
!!!YEM: Copyright 1995, estate of Helmut Schaffrath.
**kern
*ICvox
*Ivox
*M2/4
*k[f#]
*G:
{4dd
=1
8b
8g
8b
8dd
=2
8dd
8cc
4a}
=3
{8g
16g
16g
8g
8g
=4
8g
16g
16g
8a
16f#
16f#
=5
4d}
{4dd
=6
8b
8g
8b
8dd
=7
8dd
8cc
4a
=8
4g}
==
!!!AGN: Scherz -, Spiel - Lied, Pfaenderspiel, Vexierspiel
!!!ONB: ESAC (Essen Associative Code) Database: ERK3
!!!AMT: simple duple
!!!AIN: vox
!!!EED: Helmut Schaffrath
!!!EEV: 1.0
*-
